icons/slideshow-2-fill.svg

<svg xmlns="http://www.w3.org/2000/svg" width="24" height="24" fill="none"><g clip-path="url(#a)"><g><path fill="#121212" d="M13 17V20H18V22H6V20H11V17H4C3.73478 17 3.48043 16.8946 3.29289 16.7071C3.10536 16.5196 3 16.2652 3 16V4H2V2H22V4H21V16C21 16.2652 20.8946 16.5196 20.7071 16.7071C20.5196 16.8946 20.2652 17 20 17H13ZM10 6V13L15 9.5L10 6Z"/></g></g><defs><clipPath id="a"><rect width="24" height="24" fill="white"/></clipPath></defs></svg>

<svg width="24" height="24" fill="none" xmlns="http://www.w3.org/2000/svg"><g clip-path="url(#a)"><path d="M13 17v3h5v2H6v-2h5v-3H4a1 1 0 0 1-1-1V4H2V2h20v2h-1v12a1 1 0 0 1-1 1h-7ZM10 6v7l5-3.5L10 6Z" /></g><defs><clipPath id="a"><path fill="#fff" d="M0 0h24v24H0z"/></clipPath></defs></svg>
